X:8
T: Tanger tiao dan song suqin
N: C1508
O: China, Sichuan, Dianshan
S: II, 256]
R: Shange, Tiange, Haoyangge, Yayiyou]
M: none
L: 1/32
K: A
f2a2e4f8e4c4 | f8e8c8a8b4a4f8
b8c8a8 | c2c6b12a2f2f12e2c2
f2a2e4f4b8a2f2f12e4a4f4e8c8
e4c4f8e8c8b8 | c6b2c8
b4a4a4f4b8c8 | a4b4f16
b2c8b4 | b4c4b4a4 | b4c4a4b2ab
c12e4 | b4a4c8
e8c8 | e8e8 | c8e8 | b8a8
b4b4a4c4 | a8b8 | f8(3b4a4F4 | e8c8
e8e8 | b12b4 | c16
c8e8 | c4e4c4b4 | a16
f6a2e4f4 | b12a4 | f4a4b4a4 | f4a4e8 | f16

